client/assets/img/icon-profile-hover.svg

<?xml version="1.0" encoding="UTF-8" standalone="no"?>
<svg width="10px" height="22px" viewBox="0 0 10 22" version="1.1" xmlns="http://www.w3.org/2000/svg" xmlns:xlink="http://www.w3.org/1999/xlink" xmlns:sketch="http://www.bohemiancoding.com/sketch/ns">
    <!-- Generator: Sketch 3.4.4 (17249) - http://www.bohemiancoding.com/sketch -->
    <title>Untitled 2</title>
    <desc>Created with Sketch.</desc>
    <defs></defs>
    <g id="Page-1" stroke="none" stroke-width="1" fill="none" fill-rule="evenodd" sketch:type="MSPage">
        <g id="icon-profile-hover" sketch:type="MSLayerGroup" fill="#66CAFC">
            <g id="Page-1" sketch:type="MSShapeGroup">
                <g id="icon-profile-hover">
                    <g id="Page-1">
                        <g id="icon-profile">
                            <path d="M8.75,7.875 L1.25,7.875 C0.898435742,7.88867195 0.605469922,8.01855346 0.37109375,8.26464844 C0.136717578,8.51074342 0.0130208984,8.81835753 0,9.1875 L0,15.75 L2.5,15.75 L2.5,19.6875 C2.5130209,20.0566425 2.63671758,20.3642566 2.87109375,20.6103515 C3.10546992,20.8564465 3.39843574,20.9863281 3.75,21 L6.25,21 C6.60156426,20.9863281 6.89453008,20.8564465 7.12890625,20.6103515 C7.36328242,20.3642566 7.4869791,20.0566425 7.5,19.6875 L7.5,15.75 L10,15.75 L10,9.1875 C9.9869791,8.81835753 9.86328242,8.51074342 9.62890625,8.26464844 C9.39453008,8.01855346 9.10156426,7.88867195 8.75,7.875 L8.75,7.875 L8.75,7.875 L8.75,7.875 Z M8.75,14.4375 L7.5,14.4375 L7.5,11.8125 L6.25,11.8125 L6.25,19.6875 L3.75,19.6875 L3.75,11.8125 L2.5,11.8125 L2.5,14.4375 L1.25,14.4375 L1.25,9.1875 L8.75,9.1875 L8.75,14.4375 L8.75,14.4375 L8.75,14.4375 Z M8.75,3.9375 C8.7239582,2.81640065 8.35937852,1.88672245 7.65625,1.1484375 C6.95312148,0.410152554 6.06771367,0.0273438868 5,0 C3.93228633,0.0273438868 3.04687852,0.410152554 2.34375,1.1484375 C1.64062148,1.88672245 1.2760418,2.81640065 1.25,3.9375 C1.2760418,5.05859935 1.64062148,5.98827755 2.34375,6.7265625 C3.04687852,7.46484745 3.93228633,7.84765611 5,7.875 C6.06771367,7.84765611 6.95312148,7.46484745 7.65625,6.7265625 C8.35937852,5.98827755 8.7239582,5.05859935 8.75,3.9375 L8.75,3.9375 L8.75,3.9375 L8.75,3.9375 Z M5,6.5625 C4.28385059,6.54882806 3.69140859,6.29590089 3.22265625,5.80371094 C2.75390391,5.31152098 2.5130209,4.68945688 2.5,3.9375 C2.5130209,3.18554312 2.75390391,2.56347902 3.22265625,2.07128906 C3.69140859,1.57909911 4.28385059,1.32617194 5,1.3125 C5.71614941,1.32617194 6.30859141,1.57909911 6.77734375,2.07128906 C7.24609609,2.56347902 7.4869791,3.18554312 7.5,3.9375 C7.4869791,4.68945688 7.24609609,5.31152098 6.77734375,5.80371094 C6.30859141,6.29590089 5.71614941,6.54882806 5,6.5625 L5,6.5625 L5,6.5625 L5,6.5625 Z" id=""></path>
                        </g>
                    </g>
                </g>
            </g>
        </g>
    </g>
</svg>

<svg width="10" height="22" viewBox="0 0 10 22" xmlns="http://www.w3.org/2000/svg"><title>Untitled 2</title><path d="M8.75 7.875h-7.5c-.352.014-.645.144-.88.39-.233.246-.357.553-.37.922v6.563h2.5v3.938c.013.37.137.676.37.922.235.246.528.376.88.39h2.5c.352-.014.645-.144.88-.39.233-.246.357-.553.37-.922V15.75H10V9.187c-.013-.37-.137-.676-.37-.922-.235-.246-.528-.376-.88-.39zm0 6.563H7.5v-2.626H6.25v7.876h-2.5v-7.875H2.5v2.624H1.25v-5.25h7.5v5.25zm0-10.5c-.026-1.122-.39-2.05-1.094-2.79C6.953.41 6.068.028 5 0 3.932.027 3.047.41 2.344 1.148c-.703.74-1.068 1.668-1.094 2.79.026 1.12.39 2.05 1.094 2.79.703.737 1.588 1.12 2.656 1.147 1.068-.027 1.953-.41 2.656-1.148.703-.74 1.068-1.668 1.094-2.79zM5 6.562c-.716-.013-1.31-.266-1.777-.758-.47-.492-.71-1.115-.723-1.867.013-.75.254-1.374.723-1.866.468-.49 1.06-.744 1.777-.757.716.013 1.31.266 1.777.758.47.493.71 1.116.723 1.868-.013.75-.254 1.374-.723 1.866-.468.492-1.06.745-1.777.758z" fill="#66CAFC" fill-rule="evenodd"/></svg>
